website/public/Images/svg/money_bag.svg

<svg width="28" height="32" viewBox="0 0 28 32" fill="none" xmlns="http://www.w3.org/2000/svg">
<g clip-path="url(#clip0)">
<path d="M15.9022 21.2569C15.7809 21.126 15.6275 21.0281 15.469 20.9466C15.1239 20.7692 14.7464 20.6616 14.3716 20.5645V23.427C14.9799 23.3592 15.6783 23.1416 15.9977 22.5818C16.1502 22.3144 16.1806 21.9859 16.1185 21.6883C16.0848 21.527 16.0152 21.3789 15.9022 21.2569Z" fill="url(#paint0_linear)"/>
<path d="M15.9937 22.5861C15.9945 22.5846 15.995 22.5836 15.996 22.582C15.9952 22.5834 15.9944 22.5847 15.9937 22.5861Z" fill="url(#paint1_linear)"/>
<path d="M11.5175 16.6805C11.4129 16.831 11.3473 17.002 11.3292 17.1837C11.311 17.3659 11.3212 17.5685 11.3914 17.74C11.4583 17.9034 11.5983 18.024 11.7428 18.1211C11.905 18.2299 12.0834 18.3148 12.2651 18.3868C12.4175 18.4472 12.5889 18.5051 12.7737 18.5609V15.9707C12.3069 16.0689 11.7968 16.2785 11.5175 16.6805Z" fill="url(#paint2_linear)"/>
<path d="M16.009 22.5605C16.0052 22.5673 16.0011 22.5744 15.9971 22.5818C16.0018 22.5732 16.0055 22.5668 16.009 22.5605Z" fill="url(#paint3_linear)"/>
<path d="M16.0239 22.536C16.0258 22.5324 16.0261 22.5321 16.0239 22.536V22.536Z" fill="url(#paint4_linear)"/>
<path d="M15.985 22.6016C15.9804 22.6098 15.9763 22.6171 15.9731 22.6227C15.9759 22.6179 15.98 22.6107 15.985 22.6016Z" fill="url(#paint5_linear)"/>
<path d="M15.6746 6.96268C18.1901 4.91775 19.871 0.310815 18.8366 0.109318C17.4621 -0.158515 14.4775 1.0159 13.0349 1.22282C10.9888 1.46189 8.76026 -0.924292 7.50938 0.405765C6.49231 1.48719 8.23854 5.41998 10.9706 7.13331C2.81973 11.0099 -8.6368 30.4709 11.3497 31.883C39.0045 33.8369 25.1568 10.7404 15.6746 6.96268ZM18.0496 22.3105C17.9646 23.0692 17.5491 23.7553 16.928 24.2211C16.2722 24.713 15.4496 24.9417 14.6324 25.0058V25.8441C14.6324 26.0684 14.5312 26.2853 14.3576 26.4338C14.1192 26.638 13.7687 26.6884 13.4792 26.5593C13.1934 26.4321 13.0057 26.1484 13.0057 25.8441V24.9279C12.8656 24.9021 12.7264 24.8715 12.5889 24.8349C11.8251 24.6319 11.1167 24.236 10.5992 23.6504C10.3414 23.3584 10.1312 23.0272 9.98586 22.6696C9.94789 22.5762 9.91404 22.481 9.88439 22.3848C9.85755 22.2976 9.82985 22.2091 9.82028 22.1183C9.80417 21.966 9.83537 21.8105 9.90875 21.6749C10.0595 21.3957 10.3773 21.2271 10.7018 21.2552C11.0211 21.2826 11.301 21.497 11.4015 21.7916C11.4325 21.8823 11.4535 21.9753 11.4883 22.0651C11.5228 22.1542 11.5644 22.2409 11.6133 22.3234C11.71 22.4859 11.8311 22.6357 11.9705 22.7658C12.2579 23.0338 12.624 23.2079 13.0057 23.3115V20.1971C12.2594 20.0101 11.4891 19.7686 10.8728 19.3049C10.5733 19.0795 10.3192 18.7994 10.1528 18.4679C9.97714 18.118 9.90439 17.7281 9.90143 17.341C9.8984 16.9478 9.97559 16.5582 10.1451 16.2C10.3038 15.8646 10.5323 15.5635 10.8125 15.3139C11.4117 14.7802 12.2075 14.4826 13.0058 14.3732V14.3047V13.503C13.0058 13.2788 13.107 13.0618 13.2805 12.9133C13.5191 12.7092 13.8694 12.6587 14.1589 12.7878C14.4446 12.9151 14.6325 13.1987 14.6325 13.503V14.3047V14.3685C14.7388 14.3815 14.8449 14.397 14.9504 14.4155C15.7343 14.5528 16.5009 14.866 17.0742 15.4129C17.3457 15.6719 17.568 15.9806 17.7244 16.3171C17.768 16.411 17.8062 16.5071 17.8393 16.6051C17.8701 16.6964 17.9011 16.7905 17.9158 16.8858C17.9393 17.038 17.9153 17.1952 17.848 17.3344C17.7101 17.6196 17.4009 17.8012 17.0756 17.7878C16.7559 17.7743 16.4663 17.5729 16.3519 17.2837C16.3178 17.1977 16.3007 17.1067 16.266 17.0209C16.2309 16.9341 16.1854 16.8513 16.1331 16.7731C16.0313 16.621 15.8994 16.4905 15.7488 16.3831C15.4228 16.1501 15.0274 16.0287 14.6322 15.9609V18.9413C15.1018 19.0501 15.5718 19.1688 16.0217 19.3405C16.7017 19.6 17.346 19.9978 17.7172 20.6252C17.6596 20.5275 17.6036 20.4322 17.7191 20.6284C17.8326 20.8212 17.7784 20.7293 17.7215 20.6327C18.0168 21.1363 18.1138 21.7385 18.0496 22.3105Z" fill="url(#paint6_linear)"/>
</g>
<defs>
<linearGradient id="paint0_linear" x1="14.8103" y1="20.5645" x2="16.4109" y2="22.7708" gradientUnits="userSpaceOnUse">
<stop stop-color="#D7D1FD"/>
<stop offset="1" stop-color="#6C639F"/>
</linearGradient>
<linearGradient id="paint1_linear" x1="15.9948" y1="22.582" x2="15.9948" y2="22.5861" gradientUnits="userSpaceOnUse">
<stop stop-color="#76F2AF"/>
<stop offset="1" stop-color="#59B483"/>
</linearGradient>
<linearGradient id="paint2_linear" x1="11.6799" y1="15.9707" x2="13.1676" y2="17.823" gradientUnits="userSpaceOnUse">
<stop stop-color="#D7D1FD"/>
<stop offset="1" stop-color="#6C639F"/>
</linearGradient>
<linearGradient id="paint3_linear" x1="16.003" y1="22.5605" x2="16.003" y2="22.5818" gradientUnits="userSpaceOnUse">
<stop stop-color="#76F2AF"/>
<stop offset="1" stop-color="#59B483"/>
</linearGradient>
<linearGradient id="paint4_linear" x1="16.0247" y1="22.5332" x2="16.0247" y2="22.536" gradientUnits="userSpaceOnUse">
<stop stop-color="#76F2AF"/>
<stop offset="1" stop-color="#59B483"/>
</linearGradient>
<linearGradient id="paint5_linear" x1="15.9791" y1="22.6016" x2="15.9791" y2="22.6227" gradientUnits="userSpaceOnUse">
<stop stop-color="#76F2AF"/>
<stop offset="1" stop-color="#59B483"/>
</linearGradient>
<linearGradient id="paint6_linear" x1="13.9423" y1="0" x2="13.9423" y2="32" gradientUnits="userSpaceOnUse">
<stop stop-color="#188557"/>
<stop offset="1" stop-color="#8DE4AB"/>
</linearGradient>
<clipPath id="clip0">
<rect width="28" height="32" fill="white"/>
</clipPath>
</defs>
</svg>

<svg xmlns="http://www.w3.org/2000/svg" xmlns:xlink="http://www.w3.org/1999/xlink" width="28" height="32" fill="none" xmlns:v="https://vecta.io/nano"><g clip-path="url(#H)"><path d="M15.902 21.257c-.121-.131-.275-.229-.433-.31-.345-.177-.723-.285-1.097-.382v2.863c.608-.068 1.307-.285 1.626-.845.153-.267.183-.596.121-.893-.034-.161-.103-.309-.216-.431z" fill="url(#A)"/><path d="M15.994 22.586z" fill="url(#B)"/><path d="M11.518 16.681c-.105.151-.17.322-.188.503a1.19 1.19 0 0 0 .062.556c.067.163.207.284.351.381.162.109.341.194.522.266l.509.174v-2.59c-.467.098-.977.308-1.256.71z" fill="url(#C)"/><path d="M16.009 22.561l-.012.021.012-.021z" fill="url(#D)"/><path d="M16.024 22.536h0z" fill="url(#E)"/><path d="M15.985 22.602l-.012.021.012-.021z" fill="url(#F)"/><path d="M15.675 6.963C18.19 4.918 19.871.311 18.837.109c-1.375-.268-4.359.907-5.802 1.114-2.046.239-4.275-2.147-5.526-.817-1.017 1.081.729 5.014 3.461 6.728-8.151 3.877-19.607 23.338.379 24.75 27.655 1.954 13.807-21.143 4.325-24.92zm2.375 15.348c-.085.759-.501 1.445-1.122 1.911-.656.492-1.478.721-2.296.785v.838a.78.78 0 0 1-.275.59.84.84 0 0 1-.878.125c-.286-.127-.474-.411-.474-.715v-.916c-.14-.026-.279-.056-.417-.093-.764-.203-1.472-.599-1.99-1.184-.258-.292-.468-.623-.613-.981-.038-.093-.072-.189-.101-.285-.027-.087-.055-.176-.064-.266-.016-.152.015-.308.088-.443.151-.279.469-.448.793-.42.319.027.599.242.7.536.031.091.052.184.087.274s.076.176.125.258a2.02 2.02 0 0 0 .357.442c.287.268.654.442 1.035.546v-3.114c-.746-.187-1.517-.428-2.133-.892a2.42 2.42 0 0 1-.72-.837c-.176-.35-.248-.74-.251-1.127a2.61 2.61 0 0 1 .244-1.141c.159-.335.387-.636.667-.886.599-.534 1.395-.831 2.193-.941v-.069-.802a.78.78 0 0 1 .275-.59.84.84 0 0 1 .878-.125c.286.127.474.411.474.715v.802.064c.106.013.212.029.318.047.784.137 1.551.45 2.124.997.271.259.494.568.65.904.044.094.082.19.115.288.031.091.062.185.076.281.023.152-.001.309-.068.449-.138.285-.447.467-.772.453a.82.82 0 0 1-.724-.504c-.034-.086-.051-.177-.086-.263s-.081-.17-.133-.248c-.102-.152-.234-.283-.384-.39-.326-.233-.721-.354-1.117-.422v2.98c.47.109.94.228 1.39.399.68.26 1.324.657 1.695 1.285-.058-.098-.114-.193.002.003s.059.101.002.004c.295.504.392 1.106.328 1.678z" fill="url(#G)"/></g><defs><linearGradient id="A" x1="14.81" y1="20.565" x2="16.411" y2="22.771" xlink:href="#I"><stop stop-color="#d7d1fd"/><stop offset="1" stop-color="#6c639f"/></linearGradient><linearGradient id="B" x1="15.995" y1="22.582" x2="15.995" y2="22.586" xlink:href="#I"><stop stop-color="#76f2af"/><stop offset="1" stop-color="#59b483"/></linearGradient><linearGradient id="C" x1="11.68" y1="15.971" x2="13.168" y2="17.823" xlink:href="#I"><stop stop-color="#d7d1fd"/><stop offset="1" stop-color="#6c639f"/></linearGradient><linearGradient id="D" x1="16.003" y1="22.561" x2="16.003" y2="22.582" xlink:href="#I"><stop stop-color="#76f2af"/><stop offset="1" stop-color="#59b483"/></linearGradient><linearGradient id="E" x1="16.025" y1="22.533" x2="16.025" y2="22.536" xlink:href="#I"><stop stop-color="#76f2af"/><stop offset="1" stop-color="#59b483"/></linearGradient><linearGradient id="F" x1="15.979" y1="22.602" x2="15.979" y2="22.623" xlink:href="#I"><stop stop-color="#76f2af"/><stop offset="1" stop-color="#59b483"/></linearGradient><linearGradient id="G" x1="13.942" y1="0" x2="13.942" y2="32" xlink:href="#I"><stop stop-color="#188557"/><stop offset="1" stop-color="#8de4ab"/></linearGradient><clipPath id="H"><path fill="#fff" d="M0 0h28v32H0z"/></clipPath><linearGradient id="I" gradientUnits="userSpaceOnUse"/></defs></svg>
